small/extra/categories/standard/applications-ide.svg

<?xml version="1.0" encoding="UTF-8" standalone="no"?>
<!-- Created with Inkscape (http://www.inkscape.org/) -->

<svg
   xmlns:dc="http://purl.org/dc/elements/1.1/"
   xmlns:cc="http://creativecommons.org/ns#"
   xmlns:rdf="http://www.w3.org/1999/02/22-rdf-syntax-ns#"
   xmlns:svg="http://www.w3.org/2000/svg"
   xmlns="http://www.w3.org/2000/svg"
   xmlns:sodipodi="http://sodipodi.sourceforge.net/DTD/sodipodi-0.dtd"
   xmlns:inkscape="http://www.inkscape.org/namespaces/inkscape"
   version="1.1"
   width="100%"
   height="100%"
   viewBox="0 0 512 512"
   id="svg2"
   inkscape:version="0.91+devel r13804 custom"
   sodipodi:docname="applications-ide.svg">
  <sodipodi:namedview
     pagecolor="#ffffff"
     bordercolor="#666666"
     borderopacity="1"
     objecttolerance="10"
     gridtolerance="10"
     guidetolerance="10"
     inkscape:pageopacity="0"
     inkscape:pageshadow="2"
     inkscape:window-width="1366"
     inkscape:window-height="709"
     id="namedview97"
     showgrid="false"
     inkscape:zoom="0.4609375"
     inkscape:cx="-8.6779661"
     inkscape:cy="237.55932"
     inkscape:window-x="-2"
     inkscape:window-y="-3"
     inkscape:window-maximized="1"
     inkscape:current-layer="svg2" />
  <metadata
     id="metadata10">
    <rdf:RDF>
      <cc:Work
         rdf:about="">
        <dc:format>image/svg+xml</dc:format>
        <dc:type
           rdf:resource="http://purl.org/dc/dcmitype/StillImage" />
        <dc:title></dc:title>
      </cc:Work>
    </rdf:RDF>
  </metadata>
  <defs
     id="defs8" />
  <path
     d="M 26,0 C 11.602648,0 0,11.602648 0,26 l 0,460 c 0,14.39735 11.602648,26 26,26 l 460,0 c 14.39735,0 26,-11.60265 26,-26 L 512,26 C 512,11.602648 500.39735,0 486,0 L 26,0 Z"
     inkscape:connector-curvature="0"
     id="rect2986"
     style="fill:#f4ba70;fill-opacity:1;stroke:none" />
  <text
     sodipodi:linespacing="125%"
     x="-278.05048"
     y="-110.92425"
     id="text6165"
     style="font-size:129.22999573px;line-height:125%;font-family:'Gentium Book Basic';letter-spacing:0;word-spacing:0">
    <tspan
       x="-278.05048"
       y="-110.92425"
       id="tspan6167" />
  </text>
  <text
     x="127.79031"
     y="-794.27826"
     transform="scale(4.0128205,0.24920128)"
     id="text6169"
     style="font-size:46.95375824px;font-family:Arial;text-anchor:middle" />
  <text
     sodipodi:linespacing="125%"
     x="303.21954"
     y="-190.92426"
     id="text6171"
     style="font-size:129.22999573px;line-height:125%;font-family:'Gentium Book Basic';letter-spacing:0;word-spacing:0">
    <tspan
       x="303.21954"
       y="-190.92426"
       id="tspan6173" />
  </text>
  <text
     x="272.63956"
     y="-1115.3066"
     transform="scale(4.0128205,0.24920128)"
     id="text6175"
     style="font-size:46.95375824px;font-family:Arial;text-anchor:middle" />
  <text
     sodipodi:linespacing="125%"
     x="-768.36047"
     y="-372.18524"
     id="text6177"
     style="font-size:129.22999573px;line-height:125%;font-family:'Gentium Book Basic';letter-spacing:0;word-spacing:0">
    <tspan
       x="-768.36047"
       y="-372.18524"
       id="tspan6179" />
  </text>
  <text
     x="5.6009283"
     y="-1842.6628"
     transform="scale(4.0128205,0.24920128)"
     id="text6181"
     style="font-size:46.95375824px;font-family:Arial;text-anchor:middle" />
  <text
     sodipodi:linespacing="125%"
     x="329.68951"
     y="-588.65424"
     id="text6183"
     style="font-size:129.22999573px;line-height:125%;font-family:'Gentium Book Basic';letter-spacing:0;word-spacing:0">
    <tspan
       x="329.68951"
       y="-588.65424"
       id="tspan6185" />
  </text>
  <text
     x="279.2395"
     y="-2711.3284"
     transform="scale(4.0128205,0.24920128)"
     id="text6187"
     style="font-size:46.95375824px;font-family:Arial;text-anchor:middle" />
  <text
     sodipodi:linespacing="125%"
     x="910.95953"
     y="-668.66425"
     id="text6189"
     style="font-size:129.22999573px;line-height:125%;font-family:'Gentium Book Basic';letter-spacing:0;word-spacing:0">
    <tspan
       x="910.95953"
       y="-668.66425"
       id="tspan6191" />
  </text>
  <text
     x="424.08881"
     y="-3032.3667"
     transform="scale(4.0128205,0.24920128)"
     id="text6193"
     style="font-size:46.95375824px;font-family:Arial;text-anchor:middle" />
  <text
     sodipodi:linespacing="125%"
     x="521.83954"
     y="-1141.0643"
     id="text6195"
     style="font-size:129.22999573px;line-height:125%;font-family:'Gentium Book Basic';letter-spacing:0;word-spacing:0">
    <tspan
       x="521.83954"
       y="-1141.0643"
       id="tspan6197" />
  </text>
  <text
     x="327.11926"
     y="-4928.0171"
     transform="scale(4.0128205,0.24920128)"
     id="text6199"
     style="font-size:46.95375824px;font-family:Arial;text-anchor:middle" />
  <text
     sodipodi:linespacing="125%"
     x="1103.0995"
     y="-1221.0643"
     id="text6201"
     style="font-size:129.22999573px;line-height:125%;font-family:'Gentium Book Basic';letter-spacing:0;word-spacing:0">
    <tspan
       x="1103.0995"
       y="-1221.0643"
       id="tspan6203" />
  </text>
  <text
     x="471.96857"
     y="-5249.0454"
     transform="scale(4.0128205,0.24920128)"
     id="text6205"
     style="font-size:46.95375824px;font-family:Arial;text-anchor:middle" />
  <text
     sodipodi:linespacing="125%"
     x="-729.7005"
     y="193.65575"
     id="text6207"
     style="font-size:208.33000183px;line-height:125%;font-family:'Gentium Book Basic';letter-spacing:0;word-spacing:0">
    <tspan
       x="-729.7005"
       y="193.65575"
       id="tspan6209" />
  </text>
  <path
     style="fill:#000000;opacity:0.25"
     d="M 439.66797 41 C 438.87443 40.993167 438.08002 41.026661 437.28711 41.09375 L 437.23633 41.042969 C 430.67508 41.608469 424.09927 44.892126 418.7832 50.035156 L 300.34961 153.01758 C 295.26545 157.9287 292.44141 164.8935 292.44141 171.9043 C 292.44141 175.30801 293.16499 178.36451 294.41016 181.36328 C 294.46906 181.52205 294.35126 181.75319 294.41016 181.86914 C 290.00745 191.25433 291.41211 204.33369 291.41211 232.62305 C 291.41211 243.02329 264.31046 254.00195 257.57617 254.00195 L 256.5625 254.00195 C 235.06629 254.00195 165.17277 257.2341 143.62305 286.88281 C 122.07333 316.53331 41.101562 451.23419 41.101562 471 L 82.101562 512 L 486 512 C 500.39735 512 512 500.39735 512 486 L 512 103.87891 L 464.39062 56.269531 C 464.29303 56.171971 464.19559 56.075172 464.0957 55.978516 L 455.60742 47.548828 C 451.00737 43.043996 445.36426 41.049048 439.66797 41 z "
     id="path6321" />
  <path
     d="m 437.23634,41.043759 c -6.56125,0.5655 -13.13677,3.84791 -18.45284,8.99094 L 300.34921,153.0167 c -5.08416,4.91112 -7.9081,11.87732 -7.9081,18.88812 0,3.40371 0.72427,6.45956 1.96944,9.45833 0.0589,0.15877 -0.0589,0.39068 0,0.50663 -4.40271,9.38519 -2.99876,22.46488 -2.99876,50.75424 0,10.40024 -27.10128,21.37847 -33.83557,21.37847 l -1.01326,0 c -21.49621,0 -91.3901,3.23067 -112.93982,32.87938 C 122.07342,316.53237 41.101405,451.23419 41.101405,471 73.408155,471 308.20737,353.64677 320.28449,342.60967 c 14.52823,-13.34013 7.40148,-40.28086 -1.98371,-58.2128 0.0589,-0.0589 -0.0589,-0.39067 0,-0.50663 0.21763,-0.62259 0.33359,-1.59304 -0.50664,-2.99876 -5.04135,-8.4308 -7.98124,-16.97576 -7.98124,-28.84595 0,-26.37701 2.76685,-40.9195 8.48788,-49.23256 12.67473,2.15854 31.1133,-4.01203 39.31754,-11.9344 L 461.60287,91.799781 C 472.19042,81.613609 474.68255,66.223759 464.095,55.978719 l -8.48788,-8.4308 c -5.2572,-5.14838 -11.87732,-7.01614 -18.38148,-6.45064 z"
     inkscape:connector-curvature="0"
     id="path6211"
     style="fill:#ffffff" />
</svg>

<?xml version="1.0" encoding="UTF-8" standalone="no"?>
<!-- Created with Inkscape (http://www.inkscape.org/) -->

<svg
   xmlns:dc="http://purl.org/dc/elements/1.1/"
   xmlns:cc="http://creativecommons.org/ns#"
   xmlns:rdf="http://www.w3.org/1999/02/22-rdf-syntax-ns#"
   xmlns:svg="http://www.w3.org/2000/svg"
   xmlns="http://www.w3.org/2000/svg"
   xmlns:inkscape="http://www.inkscape.org/namespaces/inkscape"
   version="1.1"
   width="100%"
   height="100%"
   viewBox="0 0 512 512"
   id="svg2">
  <metadata
     id="metadata10">
    <rdf:RDF>
      <cc:Work
         rdf:about="">
        <dc:format>image/svg+xml</dc:format>
        <dc:type
           rdf:resource="http://purl.org/dc/dcmitype/StillImage" />
        <dc:title />
      </cc:Work>
    </rdf:RDF>
  </metadata>
  <defs
     id="defs8">
    <clipPath
       id="clipPath6447">
      <path
         d="M 26,0 C 11.602648,0 0,11.602648 0,26 l 0,460 c 0,14.39735 11.602648,26 26,26 l 460,0 c 14.39735,0 26,-11.60265 26,-26 L 512,26 C 512,11.602648 500.39735,0 486,0 L 26,0 z"
         inkscape:connector-curvature="0"
         id="path6449"
         style="fill:#f4ba70;fill-opacity:1;stroke:none" />
    </clipPath>
  </defs>
  <path
     d="M 26,0 C 11.602648,0 0,11.602648 0,26 l 0,460 c 0,14.39735 11.602648,26 26,26 l 460,0 c 14.39735,0 26,-11.60265 26,-26 L 512,26 C 512,11.602648 500.39735,0 486,0 L 26,0 z"
     inkscape:connector-curvature="0"
     id="rect2986"
     style="fill:#f4ba70;fill-opacity:1;stroke:none" />
  <text
     x="-278.05048"
     y="-110.92425"
     id="text6165"
     style="font-size:129.22999573px;line-height:125%;letter-spacing:0;word-spacing:0;font-family:Gentium Book Basic">
    <tspan
       x="-278.05048"
       y="-110.92425"
       id="tspan6167" />
  </text>
  <text
     x="127.79031"
     y="-794.27826"
     transform="scale(4.0128205,0.24920128)"
     id="text6169"
     style="font-size:46.95375824px;text-anchor:middle;font-family:Arial" />
  <text
     x="303.21954"
     y="-190.92426"
     id="text6171"
     style="font-size:129.22999573px;line-height:125%;letter-spacing:0;word-spacing:0;font-family:Gentium Book Basic">
    <tspan
       x="303.21954"
       y="-190.92426"
       id="tspan6173" />
  </text>
  <text
     x="272.63956"
     y="-1115.3066"
     transform="scale(4.0128205,0.24920128)"
     id="text6175"
     style="font-size:46.95375824px;text-anchor:middle;font-family:Arial" />
  <text
     x="-768.36047"
     y="-372.18524"
     id="text6177"
     style="font-size:129.22999573px;line-height:125%;letter-spacing:0;word-spacing:0;font-family:Gentium Book Basic">
    <tspan
       x="-768.36047"
       y="-372.18524"
       id="tspan6179" />
  </text>
  <text
     x="5.6009283"
     y="-1842.6628"
     transform="scale(4.0128205,0.24920128)"
     id="text6181"
     style="font-size:46.95375824px;text-anchor:middle;font-family:Arial" />
  <text
     x="329.68951"
     y="-588.65424"
     id="text6183"
     style="font-size:129.22999573px;line-height:125%;letter-spacing:0;word-spacing:0;font-family:Gentium Book Basic">
    <tspan
       x="329.68951"
       y="-588.65424"
       id="tspan6185" />
  </text>
  <text
     x="279.2395"
     y="-2711.3284"
     transform="scale(4.0128205,0.24920128)"
     id="text6187"
     style="font-size:46.95375824px;text-anchor:middle;font-family:Arial" />
  <text
     x="910.95953"
     y="-668.66425"
     id="text6189"
     style="font-size:129.22999573px;line-height:125%;letter-spacing:0;word-spacing:0;font-family:Gentium Book Basic">
    <tspan
       x="910.95953"
       y="-668.66425"
       id="tspan6191" />
  </text>
  <text
     x="424.08881"
     y="-3032.3667"
     transform="scale(4.0128205,0.24920128)"
     id="text6193"
     style="font-size:46.95375824px;text-anchor:middle;font-family:Arial" />
  <text
     x="521.83954"
     y="-1141.0643"
     id="text6195"
     style="font-size:129.22999573px;line-height:125%;letter-spacing:0;word-spacing:0;font-family:Gentium Book Basic">
    <tspan
       x="521.83954"
       y="-1141.0643"
       id="tspan6197" />
  </text>
  <text
     x="327.11926"
     y="-4928.0171"
     transform="scale(4.0128205,0.24920128)"
     id="text6199"
     style="font-size:46.95375824px;text-anchor:middle;font-family:Arial" />
  <text
     x="1103.0995"
     y="-1221.0643"
     id="text6201"
     style="font-size:129.22999573px;line-height:125%;letter-spacing:0;word-spacing:0;font-family:Gentium Book Basic">
    <tspan
       x="1103.0995"
       y="-1221.0643"
       id="tspan6203" />
  </text>
  <text
     x="471.96857"
     y="-5249.0454"
     transform="scale(4.0128205,0.24920128)"
     id="text6205"
     style="font-size:46.95375824px;text-anchor:middle;font-family:Arial" />
  <text
     x="-729.7005"
     y="193.65575"
     id="text6207"
     style="font-size:208.33000183px;line-height:125%;letter-spacing:0;word-spacing:0;font-family:Gentium Book Basic">
    <tspan
       x="-729.7005"
       y="193.65575"
       id="tspan6209" />
  </text>
  <g
     clip-path="url(#clipPath6447)"
     id="g6319"
     style="opacity:0.25;fill:#000000">
    <path
       d="m 437.23634,41.043759 c -6.56125,0.5655 -13.13677,3.84791 -18.45284,8.99094 L 772.33689,403.58809 c 5.31607,-5.14303 11.89159,-8.42544 18.45284,-8.99094 z"
       inkscape:connector-curvature="0"
       id="path6321"
       style="fill:#000000" />
    <path
       d="M 418.7835,50.034699 300.34921,153.0167 653.9026,506.57009 772.33689,403.58809 z"
       inkscape:connector-curvature="0"
       id="path6323"
       style="fill:#000000" />
    <path
       d="m 300.34921,153.0167 c -5.08416,4.91112 -7.9081,11.87732 -7.9081,18.88812 L 645.9945,525.45821 c 0,-7.0108 2.82394,-13.977 7.9081,-18.88812 z"
       inkscape:connector-curvature="0"
       id="path6325"
       style="fill:#000000" />
    <path
       d="m 292.44111,171.90482 c 0,3.40371 0.72427,6.45956 1.96944,9.45833 l 353.55339,353.55339 c -1.24517,-2.99877 -1.96944,-6.05462 -1.96944,-9.45833 z"
       inkscape:connector-curvature="0"
       id="path6327"
       style="fill:#000000" />
    <path
       d="m 294.41055,181.36315 c 0.0589,0.15877 -0.0589,0.39068 0,0.50663 l 353.55339,353.55339 c -0.0589,-0.11595 0.0589,-0.34786 0,-0.50663 z"
       inkscape:connector-curvature="0"
       id="path6329"
       style="fill:#000000" />
    <path
       d="m 294.41055,181.86978 c -4.40271,9.38519 -2.99876,22.46488 -2.99876,50.75424 l 353.55339,353.55339 c 0,-28.28936 -1.40395,-41.36905 2.99876,-50.75424 z"
       inkscape:connector-curvature="0"
       id="path6331"
       style="fill:#000000" />
    <path
       d="m 291.41179,232.62402 c 0,10.40024 -27.10128,21.37847 -33.83557,21.37847 l 353.55339,353.55339 c 6.73429,0 33.83557,-10.97823 33.83557,-21.37847 z"
       inkscape:connector-curvature="0"
       id="path6333"
       style="fill:#000000" />
    <path
       d="m 257.57622,254.00249 -1.01326,0 353.55339,353.55339 1.01326,0 z"
       inkscape:connector-curvature="0"
       id="path6335"
       style="fill:#000000" />
    <path
       d="m 256.56296,254.00249 c -21.49621,0 -91.3901,3.23067 -112.93982,32.87938 l 353.55339,353.55339 c 21.54972,-29.64871 91.44361,-32.87938 112.93982,-32.87938 z"
       inkscape:connector-curvature="0"
       id="path6337"
       style="fill:#000000" />
    <path
       d="M 143.62314,286.88187 C 122.07342,316.53237 41.101405,451.23419 41.101405,471 L 394.6548,824.55339 c 0,-19.76581 80.97201,-154.46763 102.52173,-184.11813 z"
       inkscape:connector-curvature="0"
       id="path6339"
       style="fill:#000000" />
    <path
       d="M 41.101405,471 C 73.408155,471 308.20737,353.64677 320.28449,342.60967 L 673.83788,696.16306 C 661.76076,707.20016 426.96155,824.55339 394.6548,824.55339 z"
       inkscape:connector-curvature="0"
       id="path6341"
       style="fill:#000000" />
    <path
       d="m 320.28449,342.60967 c 14.52823,-13.34013 7.40148,-40.28086 -1.98371,-58.2128 l 353.55339,353.55339 c 9.38519,17.93194 16.51194,44.87267 1.98371,58.2128 z"
       inkscape:connector-curvature="0"
       id="path6343"
       style="fill:#000000" />
    <path
       d="m 318.30078,284.39687 c 0.0589,-0.0589 -0.0589,-0.39067 0,-0.50663 l 353.55339,353.55339 c -0.0589,0.11596 0.0589,0.44773 0,0.50663 z"
       inkscape:connector-curvature="0"
       id="path6345"
       style="fill:#000000" />
    <path
       d="m 318.30078,283.89024 c 0.21763,-0.62259 0.33359,-1.59304 -0.50664,-2.99876 l 353.55339,353.55339 c 0.84023,1.40572 0.72427,2.37617 0.50664,2.99876 z"
       inkscape:connector-curvature="0"
       id="path6347"
       style="fill:#000000" />
    <path
       d="m 317.79414,280.89148 c -5.04135,-8.4308 -7.98124,-16.97576 -7.98124,-28.84595 l 353.55339,353.55339 c 0,11.87019 2.93989,20.41515 7.98124,28.84595 z"
       inkscape:connector-curvature="0"
       id="path6349"
       style="fill:#000000" />
    <path
       d="m 309.8129,252.04553 c 0,-26.37701 2.76685,-40.9195 8.48788,-49.23256 l 353.55339,353.55339 c -5.72103,8.31306 -8.48788,22.85555 -8.48788,49.23256 z"
       inkscape:connector-curvature="0"
       id="path6351"
       style="fill:#000000" />
    <path
       d="m 318.30078,202.81297 c 12.67473,2.15854 31.1133,-4.01203 39.31754,-11.9344 l 353.55339,353.55339 c -8.20424,7.92237 -26.64281,14.09294 -39.31754,11.9344 z"
       inkscape:connector-curvature="0"
       id="path6353"
       style="fill:#000000" />
    <path
       d="M 357.61832,190.87857 461.60287,91.799781 815.15626,445.35317 711.17171,544.43196 z"
       inkscape:connector-curvature="0"
       id="path6355"
       style="fill:#000000" />
    <path
       d="m 461.60287,91.799781 c 10.48766,-10.090071 13.03194,-25.286097 2.7883,-35.529729 L 817.94456,409.82344 c 10.24364,10.24363 7.69936,25.43966 -2.7883,35.52973 z"
       inkscape:connector-curvature="0"
       id="path6357"
       style="fill:#000000" />
    <path
       d="m 464.39117,56.270052 c -0.0976,-0.09756 -0.19628,-0.194677 -0.29617,-0.291333 L 817.64839,409.53211 c 0.0999,0.0967 0.19861,0.19377 0.29617,0.29133 z"
       inkscape:connector-curvature="0"
       id="path6359"
       style="fill:#000000" />
    <path
       d="m 464.095,55.978719 -8.48788,-8.4308 353.55339,353.553391 8.48788,8.4308 z"
       inkscape:connector-curvature="0"
       id="path6361"
       style="fill:#000000" />
    <path
       d="m 455.60712,47.547919 c -5.2572,-5.14838 -11.87732,-7.01614 -18.38148,-6.45064 L 790.77903,394.65067 c 6.50416,-0.5655 13.12428,1.30226 18.38148,6.45064 z"
       inkscape:connector-curvature="0"
       id="path6363"
       style="fill:#000000" />
  </g>
  <path
     d="m 437.23634,41.043759 c -6.56125,0.5655 -13.13677,3.84791 -18.45284,8.99094 L 300.34921,153.0167 c -5.08416,4.91112 -7.9081,11.87732 -7.9081,18.88812 0,3.40371 0.72427,6.45956 1.96944,9.45833 0.0589,0.15877 -0.0589,0.39068 0,0.50663 -4.40271,9.38519 -2.99876,22.46488 -2.99876,50.75424 0,10.40024 -27.10128,21.37847 -33.83557,21.37847 h -1.01326 c -21.49621,0 -91.3901,3.23067 -112.93982,32.87938 C 122.07342,316.53237 41.101405,451.23419 41.101405,471 73.408155,471 308.20737,353.64677 320.28449,342.60967 c 14.52823,-13.34013 7.40148,-40.28086 -1.98371,-58.2128 0.0589,-0.0589 -0.0589,-0.39067 0,-0.50663 0.21763,-0.62259 0.33359,-1.59304 -0.50664,-2.99876 -5.04135,-8.4308 -7.98124,-16.97576 -7.98124,-28.84595 0,-26.37701 2.76685,-40.9195 8.48788,-49.23256 12.67473,2.15854 31.1133,-4.01203 39.31754,-11.9344 L 461.60287,91.799781 C 472.19042,81.613609 474.68255,66.223759 464.095,55.978719 l -8.48788,-8.4308 c -5.2572,-5.14838 -11.87732,-7.01614 -18.38148,-6.45064 z"
     inkscape:connector-curvature="0"
     id="path6211"
     style="fill:#ffffff" />
</svg>
